X: 1630
T: Sabah Oldu Uyansana
C: (Anonim)
O: Turkey
F: http://compmusic.upf.edu/node/140
N: evic--turku--aksak--sabah_oldu--rumeli
N: makam= evic
N: form= turku
N: usul= aksak = 9/8
M: 9/8
L: 1/16
K: C _1/4B ^f ^c 
Q: 1/4=144
%%MIDI tuningsystem comma53
z4 F2G2 A2B2 =c2d2 e2 | d3=cc3BB3AA2 B2c2  | \
w:   |   | 
A3G G3F F8-F2 | 
w:   | 
z4F2 G2A2 B2=c2 d2e2  | d3=c c3B B3A A2B2 c2 | \
w:   |   | 
A3GG3FF4fg f^ede  | 
w:   | 
f4 f2f2 f4 a4 f2 | g3f^e2 d2e2 f2g2 a2gf  | \
w:  *  Sa bah  ol du   |  u *  yan *  sa  | 
f2z2 f2f2 f4 a4 f2 | 
w:  na   Gül  yas tı ğa   | 
g3f^e2 d2e2 f2g2 a2gf  | f2z2 f2f2 f4 a4 f2 | \
w:  da *  yan *  sa  |  na   Ö lü yo rum   | 
g3fe2 d2d4g2 =f2e2  | 
w:  i *  nan *  sa na  *  a   | 
d2ed =c2B^A B4 g2f2 a2 | g2 =fed2 =cBA4A2 B2c2  | \
w:  ca *  *  nım   *  *  *  U *  yan   |  yâ *  *  rim  *  *  *  sa bah  | 
A3B AGGF F4 d2d2 a2 | 
w:  lar  *  ol *  *  *  du   Sa bah   | 
g2 =fed2 =cBA4A2 B2c2  | A3B AGGF F4 GFG^E DE | 
w:  yıl *  *  dız *  *  *  la  |  rı  *  doğ *  *  *  du   SAZ  | 
z4F2 G2A2 B2=c2 d2e2  | d3=c c3B B3A A2B2 c2 | \
w:   |   | 
A3GG3FF8-F2  | 
w:   | 
z4 F2G2 A2B2 =c2d2 e2 | d3=cc3BB3AA2 B2c2  | \
w:   |   | 
A3G G3F F4 fgf^e de | 
w:   | 
f4f2 f2f4a4f2  | g3f ^e2d2 e2f2 g2a2 gf | \
w:  *  Sa bah  ol du   |  u *  yan *  sa  | 
f2 z2f2 f2f4a4f2  | 
w:  na   Gül  yas tı ğa   | 
g3f ^e2d2 e2f2 g2a2 gf | f2 z2f2 f2f4a4f2  | \
w:  da *  yan *  sa  |  na   Ö lü yo rum   | 
g3f e2d2 d4 g2=f2 e2 | 
w:  i *  nan *  sa na  *  a   | 
d2 ed=c2 B^AB4g2 f2a2  | g2=fe d2=cB A4 A2B2 c2 | \
w:  ca *  *  nım   *  *  *  U *  yan   |  yâ *  *  rim  *  *  *  sa bah  | 
A3BAG GFF4d2 d2a2  | 
w:  lar  *  ol *  *  *  du   Sa bah   | 
g2=fe d2=cB A4 A2B2 c2 | A3BAG GFF4|
w:  yıl *  *  dız *  *  *  la  |  rı  *  doğ *  *  *  du    | 


